lib/brands/icons/google-my-business.svg

<svg xmlns="http://www.w3.org/2000/svg" fill="none" aria-hidden="true" viewBox="0 0 48 48"><g id="google-my-business-Icon"><g id="Group"><g id="Group_2"><path id="Vector" fill="#4989F5" d="M38.0608 16.1573H9.05641C8.36726 16.1573 7.80859 16.716 7.80859 17.4051V38.4631C7.80859 39.1522 8.36726 39.7109 9.05641 39.7109H38.0608C38.7499 39.7109 39.3086 39.1522 39.3086 38.4631V17.4051C39.3086 16.716 38.7499 16.1573 38.0608 16.1573Z"/><path id="Vector_2" fill="url(#paint0_linear_94_18150)" d="M37.6967 15.9803H9.38561C8.50862 15.9803 7.82617 22.7676 7.82617 23.6446L23.3302 39.7109H37.6967C38.5764 39.7085 39.2889 38.996 39.2913 38.1163V17.5746C39.2887 16.6951 38.5763 15.9827 37.6967 15.9803V15.9803Z"/><path id="Vector_3" fill="#3C4BA6" d="M15.001 20.1017H24.001V8.2894H16.3486L15.001 20.1017Z"/><path id="Vector_4" fill="#7BABF7" d="M33.001 20.1017H24.001V8.2894H31.6533L33.001 20.1017ZM39.3084 10.5286L39.3196 10.5688C39.3169 10.5546 39.3115 10.5414 39.3084 10.5286Z"/><path id="Vector_5" fill="#3F51B5" d="M39.3196 10.5685L39.3084 10.5282C39.0231 9.22165 37.8666 8.28991 36.5292 8.28906H31.6533L32.9999 20.1017H41.9999L39.3196 10.5685Z"/><path id="Vector_6" fill="#7BABF7" d="M8.68207 10.5685L8.69323 10.5282C8.97856 9.22165 10.135 8.28991 11.4724 8.28906H16.3486L15 20.1017H6L8.68207 10.5685Z"/></g><path id="Vector_7" fill="#709BE0" fill-rule="evenodd" d="M15.0164 20.0987C15.0164 22.5826 13.0028 24.5962 10.5189 24.5962C8.03508 24.5962 6.02148 22.5826 6.02148 20.0987H15.0164Z" clip-rule="evenodd"/><path id="Vector_8" fill="#3C4BA6" fill-rule="evenodd" d="M24.011 20.0987C24.011 22.5826 21.9974 24.5962 19.5136 24.5962C17.0297 24.5962 15.0161 22.5826 15.0161 20.0987H24.011Z" clip-rule="evenodd"/><path id="Vector_9" fill="#709BE0" fill-rule="evenodd" d="M33.0062 20.0987C33.0062 22.5826 30.9926 24.5962 28.5087 24.5962C26.0248 24.5962 24.0112 22.5826 24.0112 20.0987H33.0062Z" clip-rule="evenodd"/><path id="Vector_10" fill="#3C4BA6" fill-rule="evenodd" d="M41.9998 20.0987C41.9998 22.5826 39.9862 24.5962 37.5023 24.5962C35.0185 24.5962 33.0049 22.5826 33.0049 20.0987H41.9998Z" clip-rule="evenodd"/><path id="Vector_11" fill="white" d="M37.5028 32.2835C37.4869 32.0694 37.4605 31.8738 37.423 31.6241H32.5169C32.5169 32.3103 32.5169 33.059 32.5142 33.7455H35.3563C35.296 34.0655 35.173 34.3703 34.9944 34.6426C34.8159 34.9148 34.5853 35.1491 34.3159 35.332C34.3159 35.332 34.3159 35.3202 34.3139 35.3198C33.966 35.5483 33.5741 35.7012 33.1635 35.7688C32.7518 35.8441 32.3298 35.8423 31.9188 35.7634C31.5014 35.677 31.1063 35.5058 30.7579 35.2603C30.2437 34.8956 29.847 34.3888 29.6166 33.802C29.5991 33.7563 29.5828 33.7103 29.5662 33.6636V33.6586L29.5706 33.6552C29.347 32.9989 29.3464 32.2872 29.5689 31.6305C29.7257 31.1699 29.9836 30.7502 30.3238 30.4023C31.1218 29.5768 32.3142 29.2663 33.4136 29.5977C33.8351 29.727 34.2203 29.9537 34.5379 30.2595L35.4968 29.3007C35.6659 29.1298 35.8415 28.9644 36.0043 28.7877C35.5181 28.3342 34.9474 27.9808 34.3247 27.7477C33.1915 27.3368 31.9519 27.3259 30.8117 27.7169C30.772 27.7304 30.7325 27.7445 30.6933 27.7592C29.4632 28.2216 28.4512 29.1285 27.8572 30.3008C27.6475 30.7158 27.4948 31.1571 27.4032 31.6129C26.8601 34.312 28.507 36.9687 31.1659 37.6829C32.0351 37.9156 32.9592 37.9099 33.8351 37.7109C34.631 37.5312 35.3669 37.1488 35.9715 36.6008C36.6021 36.0206 37.0542 35.2474 37.291 34.4263C37.489 33.7304 37.5608 33.0047 37.5028 32.2835Z"/></g></g><defs><linearGradient id="paint0_linear_94_18150" x1="7.82617" x2="39.291" y1="27.8454" y2="27.8454" gradientUnits="userSpaceOnUse"><stop offset="0.03" stop-color="#4079D8"/><stop offset="1" stop-color="#4989F5"/></linearGradient></defs></svg>

<svg xmlns="http://www.w3.org/2000/svg" fill="none" aria-hidden="true" viewBox="0 0 48 48"><path fill="#4989F5" d="M38.06 16.157H9.057c-.689 0-1.247.559-1.247 1.248v21.058c0 .69.558 1.248 1.247 1.248h29.005c.689 0 1.248-.559 1.248-1.248V17.405c0-.689-.56-1.248-1.248-1.248Z"/><path fill="url(#a)" d="M37.697 15.98H9.386c-.877 0-1.56 6.788-1.56 7.665L23.33 39.71h14.367a1.599 1.599 0 0 0 1.594-1.595v-20.54a1.599 1.599 0 0 0-1.594-1.595Z"/><path fill="#3C4BA6" d="M15.001 20.102h9V8.289h-7.652L15 20.102Z"/><path fill="#7BABF7" d="M33.001 20.102h-9V8.289h7.652l1.348 11.813Zm6.307-9.573.012.04c-.003-.014-.008-.028-.012-.04Z"/><path fill="#3F51B5" d="m39.32 10.569-.012-.04a2.847 2.847 0 0 0-2.779-2.24h-4.876L33 20.102h9l-2.68-9.534Z"/><path fill="#7BABF7" d="m8.682 10.569.011-.04a2.846 2.846 0 0 1 2.78-2.24h4.876L15 20.102H6l2.682-9.534Z"/><path fill="#709BE0" fill-rule="evenodd" d="M15.016 20.099a4.498 4.498 0 0 1-8.995 0h8.995Z" clip-rule="evenodd"/><path fill="#3C4BA6" fill-rule="evenodd" d="M24.011 20.099a4.497 4.497 0 1 1-8.995 0h8.995Z" clip-rule="evenodd"/><path fill="#709BE0" fill-rule="evenodd" d="M33.006 20.099a4.498 4.498 0 0 1-8.995 0h8.995Z" clip-rule="evenodd"/><path fill="#3C4BA6" fill-rule="evenodd" d="M42 20.099a4.498 4.498 0 0 1-8.995 0H42Z" clip-rule="evenodd"/><path fill="#fff" d="M37.503 32.283a8.554 8.554 0 0 0-.08-.659h-4.906c0 .686 0 1.435-.003 2.122h2.842a2.47 2.47 0 0 1-1.04 1.586s0-.012-.002-.012c-.348.228-.74.381-1.15.449a3.378 3.378 0 0 1-1.245-.006 3.11 3.11 0 0 1-1.161-.503 3.24 3.24 0 0 1-1.141-1.458 3.82 3.82 0 0 1-.05-.138v-.005l.004-.004a3.147 3.147 0 0 1-.002-2.024c.157-.461.415-.88.755-1.229a3.067 3.067 0 0 1 3.09-.804c.421.129.806.356 1.124.662l.959-.96c.169-.17.345-.336.507-.512a5.067 5.067 0 0 0-1.68-1.04 5.28 5.28 0 0 0-3.63.011 5.25 5.25 0 0 0-2.837 2.542 5.22 5.22 0 0 0 3.309 7.382c.87.233 1.793.227 2.67.028a4.733 4.733 0 0 0 2.136-1.11 4.758 4.758 0 0 0 1.319-2.175c.198-.696.27-1.421.212-2.143Z"/><defs><linearGradient id="a" x1="7.826" x2="39.291" y1="27.845" y2="27.845" gradientUnits="userSpaceOnUse"><stop offset=".03" stop-color="#4079D8"/><stop offset="1" stop-color="#4989F5"/></linearGradient></defs></svg>
